X:1
T:Joyeusement sans
T:Joyeusement sans
T:Jean Guyot (Castileti)
C:Jean Guyot (Castileti)
%%score [ 1 [ 2 3 ] 4 ]
L:1/8
Q:1/4=77
M:2/2
K:C
V:1 treble nm="Superius" snm="S"
V:2 treble nm="Altus 1" snm="A 1"
V:3 treble nm="Altus 2" snm="A 2"
V:4 treble-8 nm="Tenor" snm="T"
V:1
 c2 AB G2 c2 | B2 c2 d2 z2 | d2 Bc A2 d2 | c2 d2 e2 z2 | B2 cA B2 A2 | A2 G3 F F2 | G2 d2 dddd | %7
w: Joy- eu- se- ment, sans|nulz faulx tour,|joy- eu- se- ment, sans|nulz faulx tour,|joy- eu- se- ment sans|nulz _ _ faulx|tour, et sans pen- ser à|
 ed c2 d2 d2- | d2 B2 c2 A2 | d2 dd dded | c2 d2 B2 BB | BBcB A2 B2 | B4 G2 A2 | F2 f2 ffff | %14
w: vil- lo- ni- e, joy-|* eu- se- ment,|et sans pen- ser à vil- lo-|ni- e, et sans pen-|ser à vil- lo- ni- e,|joy- eu- se-|ment, et sans pen- ser à|
 gf e3 d d2- | d2 c2 d4 | z2 e2 e2 e2 | d3 c B2 G2 | A2 c4 B2 | A2 G2 A4 | G8 | z2 A2 AABA | %22
w: vil- lo- ni- * *|* * e,|les dam- mes|ser- * * vi-|ray tous- *||jours,|de corps, de biens, tant|
 c2 d2 A2 B2 | z2 A2 AA B2- | B2 G2 c2 d2 | A2 d3 c BA | B2 A4 G2 | A4 A2 AA | AGAB cd e2- | %29
w: qu'au- ray vi- e,|de corps, de biens,|_ tant qu'au- ray|vi- * * * *||e, et en des-|pis de ja- lou- si- * *|
 ed d4 c2 | d8 | z8 | z4 A2 AA | AGAB c3 d | e2 d3 c/B/ c2 | A4 z2 B2- | BBGA B2 c2 | B2 A2 B3 B | %38
w: |e,||et en des-|pis de ja- lou- si- *||e et|_ des en- vi- eulx le|bon- jour, et des|
 GA B2 c2 d2 | d2 e3 ecd | e2 f2 d4 | c4 A2 BA | BBBc d2 B2 | B2 cB cccd | e2 d2 c2 AB | G4 z2 c2 | %46
w: en- vi- eulx le bon-|jour, et des en- vi-|eulx le bon|jour don'- ray à|tout- tes mes a- mi- es,|don'- ray à tout- tes mes a-|mi- es, joy- eu- se-|ment, joy-|
 A2 B2 G2 c2 | B2 c2 d2 z2 | d2 Bc A2 d2 | c2 d2 e2 z2 | B2 cA B2 A2 | A2 G3 F F2 | G8- | G8- | %54
w: eu- se- ment, sans|nulz faulx tour,|joy- eu- se- ment sans-|nulz faulx tour,|joy- eu- se- ment sans|nulz _ _ faulx|tour.|_|
 G8- | G8 |] %56
w: ||
V:2
 z8 | G2 EF D2 G2 | F2 G2 A2 z2 | A2 FG E2 A2 | G2 AF GF ED | F2 E2 D4- | D4 G2 GG | GGAG F2 G2- | %8
w: |Joy- eu- se- ment, sans|nulz faulx tour,|joy- eu- se- ment, sans|nulz faulx _ _ _ _ _|_ _ tour,|_ et sans pen-|ser à vil- lo- ni- e,|
 G2 G2 E2 F2 | D2 G2 GGGG | AG F2 G2 G2- | G2 E2 F2 D2 | z2 D2 E2 C2 | DE FG A2 d2 | B2 c2 A4 | %15
w: _ joy- eu- se-|ment, et sans pen- ser à|vil- lo- ni- e, joy-|* eu- se- ment,|joy- eu- se-|ment, _ _ _ _ joy-|eu- se- ment,|
 z2 A2 A2 B2 | G2 G2 c3 B | AG A2 G3 F | ED E3 F G2 | F2 ED E4 | D8 | z4 D2 DD | E2 D2 F2 G2 | %23
w: les dam- mes|ser- vi- ray _|_ _ _ tous- *|||jours,|de corps, de|biens, tant qu'au- ray|
 G2 E2 z2 D2 | DD E4 D2 | F2 G2 A2 D2 | D2 DD DCDE | F4 F2 FF | FEFG AF G2- | GFED E4 | D8 | z8 | %32
w: vi- e, et-|en des- pis de|ja- lou- si- e,|et en des- pis de ja- lou-|si- e, et en|des- pis de ja- lou- si- *||e,||
 z4 F2 FF | FEFG AB A2 | GFED E4 | F2 D3 DB,C | D2 G3 GEF | G2 F2 G4 | G4 z2 B2- | BBGG c2 c2- | %40
w: et en des-|pis de ja- lou- si- * *||e, et des en- vi-|eulx, et des en- vi-|eulx le bon-|jour, et|_ des en- vi- eulx le|
 cB A4 G2 | A4 F2 GF | GGGG F2 G2 | G2 GG G2 G2 | GA B2 A4 | z2 G2 FGEA | F2 G2 E4 | G2 EF D2 G2 | %48
w: _ _ _ bon-|jour don'- ray à|tout- tes mes a- mi- es,|don'- ray à tout- tes|mes a- mi- es,|joy- eu- se- ment, joy-|eu- se- ment,|joy- eu- se- ment, sans|
 F2 G2 A2 z2 | A2 FG E2 A2 | G2 AF GFED | F2 E2 D4 | B,4 z2 D2 | B,C G,4 C2- | C2 B,2 E4 | D8 |] %56
w: nulz faulx tour,|sans nulz faulx tour, sans|nulz faulx _ _ _ _ _|_ _ _|tour, joy-|eu- se- ment, sans|_ nulz faulx|tour.|
V:3
 z4 C2 A,B, | G,2 C2 B,2 C2 | D2 z2 D2 B,C | A,2 D2 C2 D2 | E E2 C D2 C2- | C2 B,2 A,2 A,2 | %6
w: Joy- eu- se-|ment, sans nulz faulx|tour, joy- eu- se-|ment, sans nulz faulx|tour, joy- eu- se- ment,|_ sans nulz faulx|
 B,4 D3 B, | C2 A,2 D2 DD | DDED C2 D2 | D4 B,2 C2 | A,2 D2 DDDD | ED C2 D2 D2- | D2 B,2 C2 A,2 | %13
w: tour, sans nulz|faulx tour, et sans pen-|ser à vil- lo- ni- e,|joy- eu- se-|ment, et sans pen- ser à|vil- lo- ni- e, joy-|* eu- se- ment,|
 A2 AA AABA | G2 A2 F3 E/D/ | E4 DDGG | E2 E2 A3 G | FE F2 D2 E2 | A,3 B, CD E2- |"^#" ED D4 C2 | %20
w: et sans pen- ser à vil- lo-|ni- * * * *|e, les dam- mes ser-|vi- ray tous- *||||
 D2 A,2 A,A,B,A, | C2 D2 A,2 D2 | z4 D2 DD | E2 C2 F2 G2 |"^b" D2 G3 ABG | A2 G3 F/E/ F2 | %26
w: jours, de corps, de biens, tant|qu'au- ray vi- e,|de corps, de|biens, tant qu'au- ray|vi- e, de corps, de|biens, tant qu'au- * *|
 DCB,A, B,4 | A,2 D2 DDDC | DE D2 A,2 C2 | B,4 A,4 | B,2 B,B, B,A,B,C | DEFD E2 D2- | D2 C2 D4- | %33
w: ray _ _ _ vi-|e, et en des- pis de|ja- lou- si- * *||e, et en des- pis de ja-|lou- * * * si- *|* * e,|
 D4 z4 | z8 | D3 D B,C D2 | B,2 E2 D2 z2 | D3 D B,C D2 | E2 D2 C2 G2- | GGEF G2 A2 | G2 F4 ED | %41
w: _||et des en- vi- eulx|le bon- jour,|et des en- vi- eulx|le bon- jour, et|_ des en- vi- eulx le|bon- * * *|
 E4 D2 DD | DDDD D2 D2 | D2 ED EC E2- | EE F2 E2 F2 | EF D2 z4 | z4 C2 A,B, | G,2 C2 B,2 C2 | %48
w: jour, don'- ray à|tout- tes mes a- mi- es,|don'- ray à tout- tes mes|_ a- mi- * *|* * es,|joy- eu- se-|ment, joy- eu- se-|
 D2 z2 D2 B,C | G,2 D2 C2 D2 | E E2 C D2 C2- | C2 B,2 A,2 A,2 | G,4 D2 B,C | A,2 C2 B,2 E2- | %54
w: ment, joy- eu- se-|ment, sans nulz- faulx|tour, joy- eu- se- ment|_ sans nulz faulx|tour, joy- eu- se-|ment, sans _ _|
 E2 D2 C4 | B,8 |] %56
w: _ _ faulx|tour.|
V:4
 z8 | z4 G2 EF | D2 G2 F2 G2 | A2 z2 A2 FG | E2 A2 G2 A2- | AF G2 D4 | G8 | z4 z2 G2 | GGGG AG F2 | %9
w: |Joy- eu- se-|ment, sans nulz faulx|tour, joy- eu- se-|ment, sans nulz faulx|_ _ _ _|tour,|et|sans pen- ser à vil- lo- ni-|
 G2 G4 E2 | F2 D2 G2 GG | GGAG F2 G2 | G4 E2 F2 | D2 d2 dddd | ed c2 d4 | A4 z2 G2 | c2 c2 A2 A2 | %17
w: e joy- eu-|se- ment, et sans pen-|ser à vil- lo- ni- e,|joy- eu- se-|ment, sans pen- ser à vil-|lo- ni- * *|e, les|dam- mes ser- vi-|
 d2 d2 G2 c2- | cB A4 G2 |"^b" A2 B2 A4 | D4 D2 DD | E2 D2 F2 G2 | C2 G2 z2 G2 | GG A4 G2 | %24
w: ray tous- * *|||jours, de corps, de|biens, tant qu'au- ray|vi- e, de|corps, de biens, tant|
 _B2 c3 B G2 | d2 G2 d4 | G2 F2 G4 | D2 DD DCDE | D4 z4 | z8 | G2 GG GFGA | BG A2 GFED | E4 D4 | %33
w: qu'au- ray _ _|vi- * *|* * e,|et en des- pis de ja lou-|sie,||et en des- pis de ja lou-|si- * * * * * *|* e,|
 D2 DG FGAB | cd B2 A4 | D4 z2 G2- | GGEF G2 A2 | G2 D2 G3 G | EF G2 A2 G2 | G2 c3 cAB | c2 d2 B4 | %41
w: et en des- pis de ja- lou-|si- * * *|e et|_ des en- vi- eulx le|bon- jour, et des|en- vi- eulx le bon-|jour, et des en- vi-|eulx le bon-|
 A4 D2 GD | GGGA _B2 G2 | G2 cG c3 c | cc d2 A4 | c2 Bc A4 | z8 | z4 G2 EF | D2 G2 F2 G2 | %49
w: jour, don'- ray à|tout- tes mes a- mi- es,|don'- ray à tout- tes|mes a- mi- *|* * * es||joy- eu- se-|ment, joy- eu- se-|
 A2 z2 A2 FG | E2 A2 G2 A2- | AF G2 D4 | d2 Bc G4 | z2 C2 E2 C2 | G4 C2 CC | G8 |] %56
w: ment, joy- eu- se-|ment, sans nulz faulx|_ _ _ tour,|joy- eu- se- ment,|joy- eu- se-|ment sans nulz faulx|tour.|

